Adwaita++/devices/16/pda.svg

<svg height="16" width="16" xmlns="http://www.w3.org/2000/svg">
  <g fill="#474747">
    <path d="m4.183 0c-1.798 0-3.153 1.338-3.153 3v10c0 1.662 1.354 3 3.152 3h7.572c1.799 0 3.246-1.338 3.246-3v-6.59l-1.976 2.878v3.712c0 .554-.482 1-1.082 1h-7.916c-.599 0-1.019-.446-1.019-1v-10c0-.554.42-1 1.02-1h7.66l1.319-1.75a3.577 3.577 0 0 0 -1.251-.25z"/>
    <path d="m14.04 1.031s-2.519 3.506-4.04 5.969l-1.406 1.167.038 1.574-.764 1.245h.696l.74-.584 1.675-.462.595-1.481 4.185-6.365z"/>
  </g>
</svg>

<svg xmlns="http://www.w3.org/2000/svg" width="16" height="16">
    <g fill="#474747">
        <path d="M4.183 0C2.385 0 1.03 1.338 1.03 3v10c0 1.662 1.354 3 3.152 3h7.572C13.553 16 15 14.662 15 13V6.41l-1.976 2.878V13c0 .554-.482 1-1.082 1H4.026c-.599 0-1.019-.446-1.019-1V3c0-.554.42-1 1.02-1h7.66L13.006.25A3.577 3.577 0 0 0 11.755 0z"/>
        <path d="M14.04 1.031S11.521 4.537 10 7L8.594 8.167l.038 1.574-.764 1.245h.696l.74-.584 1.675-.462.595-1.481 4.185-6.365z" style="line-height:normal;-inkscape-font-specification:Sans;text-indent:0;text-align:start;text-decoration-line:none;text-transform:none;marker:none" color="#000" font-weight="400" font-family="Sans" overflow="visible"/>
    </g>
</svg>
